build/img/icon/yt-blue.svg

<svg class="t-sociallinks__svg" xmlns="http://www.w3.org/2000/svg" width="30" height="30" viewBox="0 0 48 48"><path d="M24 .013C37.248.013 47.987 10.753 47.987 24c0 13.247-10.74 23.987-23.987 23.987C10.753 47.987.013 37.247.013 24 .013 10.753 10.752.013 24 .013zm11.815 18.08c-.25-1.337-1.363-2.335-2.642-2.458-3.054-.196-6.119-.355-9.178-.357-3.059-.002-6.113.154-9.167.347-1.284.124-2.397 1.117-2.646 2.459a40.163 40.163 0 000 11.672c.249 1.342 1.362 2.454 2.646 2.577 3.055.193 6.107.39 9.167.39 3.058 0 6.126-.172 9.178-.37 1.279-.124 2.392-1.269 2.642-2.606a39.769 39.769 0 000-11.654zm-14.591 9.342V20.32l6.627 3.558-6.627 3.557z" fill="#2a47b6"/></svg>

<svg class="t-sociallinks__svg" version="1.1" id="Layer_1" xmlns="http://www.w3.org/2000/svg" xmlns:xlink="http://www.w3.org/1999/xlink" x="0px" y="0px" width="30px" height="30px" viewBox="0 0 48 48" enable-background="new 0 0 48 48" xml:space="preserve"><desc>Youtube</desc><path style="fill:#2a47b6;" d="M24 0.0130005C37.248 0.0130005 47.987 10.753 47.987 24C47.987 37.247 37.247 47.987 24 47.987C10.753 47.987 0.0130005 37.247 0.0130005 24C0.0130005 10.753 10.752 0.0130005 24 0.0130005ZM35.815 18.093C35.565 16.756 34.452 15.758 33.173 15.635C30.119 15.439 27.054 15.28 23.995 15.278C20.936 15.276 17.882 15.432 14.828 15.625C13.544 15.749 12.431 16.742 12.182 18.084C11.898 20.017 11.756 21.969 11.756 23.92C11.756 25.871 11.898 27.823 12.182 29.756C12.431 31.098 13.544 32.21 14.828 32.333C17.883 32.526 20.935 32.723 23.995 32.723C27.053 32.723 30.121 32.551 33.173 32.353C34.452 32.229 35.565 31.084 35.815 29.747C36.101 27.817 36.244 25.868 36.244 23.919C36.244 21.971 36.101 20.023 35.815 18.093ZM21.224 27.435V20.32L27.851 23.878L21.224 27.435Z"></path></svg>
